!!!!SEGMENT: pl-kk--kk-i-636--002-009_anonim--in-parasceve-responsorium-6tum.krn
!!!cenid: 18xx:4543
!!!COM: Anonim
!!!COM-rismID: pe30004985
!!!CDT:
!!!CNT:
!!!OPR: In Parasceve
!!!OTL: Responsorium 6tum
!!!OMV: 009
!!!PDT:
!!!AGN: Sacred
!!!YEC: Copyright 2022 Narodowy Instytut Fryderyka Chopina (https://polishscores.org)
!!!YEM: License CC-BY-4.0 (https://creativecommons.org/licenses/by/4.0)
!!!SMS-siglum: PL-Kk
!!!SMS-shelfmark: Kk.I.636
!!!SMS-variant:
!!!SMS-altvar:
!!!SMS-shelfwork: 002-009 M
!!!NIFC-rismSourceID: 1001216440
!!!NIFC-rismChildID: 1001216924
!!!NIFC-islandoraID: pl-kk:40786
!!!URL-pdf-islandora: https://repozytorium.nifc.pl/islandora/object/pl-kk%3A40786/datastream/PDF/view
!!!URL-scan: https://polish.musicsources.pl/pl/lokalizacje/galeria/rekopisy/7271/1 @EN{Scan on Polish Music Sources Website} @PL{Skany w portalu Dziedzictwo Muzyki Polskiej w otwartym dostępie}
!!!IIIF:
!!!ONB-nifc: UWAGA: Lamentacje i Responsoria In Parasceve na skanach: S – 8-14, A – 31-37,T – 53-60, B – 78-86. Każda Lamentacja i Responsorium to oddzielne pliki.
!!!AIN: 1 alto 1 bass 1 soprn 1 tenor
!!!key: E-
**kern	**text	**dynam	**kern	**text	**kern	**text	**kern	**text
*part4	*part4	*part4	*part3	*part3	*part2	*part2	*part1	*part1
*staff4	*staff4	*	*staff3	*staff3	*staff2	*staff2	*staff1	*staff1
*ICvox	*	*	*ICvox	*	*ICvox	*	*ICvox	*
*Ibass	*	*	*Itenor	*	*Ialto	*	*Isoprn	*
*I"Basso.	*	*	*I"Tenore.	*	*I"Alto.	*	*I"Soprano.	*
*I'B	*	*	*I'T	*	*I'A	*	*I'S	*
*clefF4	*	*	*clefC4	*	*clefC3	*	*clefC1	*
*k[b-e-a-]	*	*	*k[b-e-a-]	*	*k[b-e-a-]	*	*k[b-e-a-]	*
*E-:	*	*	*E-:	*	*E-:	*	*E-:	*
*M2/2	*	*	*M2/2	*	*M2/2	*	*M2/2	*
*met(c|)	*	*	*met(c|)	*	*met(c|)	*	*met(c|)	*
*all\right	*	*	*all\right	*	*all\right	*	*all\right	*
*2\right	*	*	*2\right	*	*2\right	*	*2\right	*
!!LO:TX:t=P:problem:all\right
!LO:TX:t=P:problem:znaki: A- zamiast AA-	!	!	!	!	!	!	!	!
4B-\	A-	.	4B-\	A-	4b-\	A-	4b-\	A-
=1	=1	=1	=1	=1	=1	=1	=1	=1
2E-\	.	.	2B-\	-ni-	2g\	.	2ee-\	.
4E-\	-ni-	.	2e-\	-mam	4g\	-ni-	4b-\	-ni-
4E-\	-mam	.	.	.	4g\	-mam	4b-\	-mam
!LO:LB:g=original	!	!	!	!	!	!	!LO:LB:g=original	!
=2	=2	=2	=2	=2	=2	=2	=2	=2
2A-\	me-	.	4e-\	me-	4a-\	me-	4cc\	me-
.	.	.	4e-\	-am	4a-\	-am	4cc\	-am
2A-\	-am	.	2r	.	2r	.	2r	.
!	!	!	!LO:LB:g=original	!	!LO:LB:g=original	!	!	!
=3	=3	=3	=3	=3	=3	=3	=3	=3
2A-\	tra-	.	4r	.	4r	.	4r	.
.	.	.	4e-\	tra-	4a-\	tra-	4cc\	tra-
4A-\	-di-	.	4e-\	-di-	4a-\	-di-	4cc\	-di-
8A-\	-di	.	8e-\	-di	8g\	-di	8cc\	-di
8A-\	in	.	8e-\	in	8g\	in	8cc\	in
=4	=4	=4	=4	=4	=4	=4	=4	=4
2A-\	ma-	.	2.d\	ma-	2.f\	ma-	2.cc\	ma-
2A-\	-nus	.	.	.	.	.	.	.
.	.	.	4d\	-nus	4f\	-nus	4b-\	-nus
=5	=5	=5	=5	=5	=5	=5	=5	=5
2.G\	i-	.	2e-\	i-	2.e-\	i-	2.b-\	i-
.	.	.	2B-\	-ni-	.	.	.	.
4G\	-ni-	.	.	.	4e-\	-ni-	4b-\	-ni-
!	!	!	!	!	!	!	!LO:LB:g=original	!
=6	=6	=6	=6	=6	=6	=6	=6	=6
2A-\	-quo-	.	2.B-\	-quo-	2f\	-quo-	2dd\	-quo-
2G\	-rum	.	.	.	2e-\	-rum,	2ee-\	-rum
.	.	.	4B-\	-rum	.	.	.	.
!LO:LB:g=original	!	!	!	!	!	!	!	!
=7	=7	=7	=7	=7	=7	=7	=7	=7
2D\	i-	.	2B-\	i-	2f\	i-	2a-\	i-
2E-\	-ni-	.	2B-\	-ni-	2e-\	-ni-	2g\	-ni-
!	!	!	!LO:LB:g=original	!	!LO:LB:g=original	!	!	!
=8	=8	=8	=8	=8	=8	=8	=8	=8
1AAn	-quo-	.	1c	-quo-	1e-	-quo-	1g	-quo-
=9	=9	=9	=9	=9	=9	=9	=9	=9
2BB-/	-rum,	.	2d\	-rum	2d\	-rum,	2f/	-rum,
4r	.	.	2r	.	2r	.	2r	.
4B-\	et	.	.	.	.	.	.	.
=10	=10	=10	=10	=10	=10	=10	=10	=10
!	!	!	!	!	!LO:TX:a:t=1:mod=	!	!LO:TX:a:t=2.:mod=	!
4.B-\	fa-	.	2r	.	1r	.	0r	.
8B-\	-cta	.	.	.	.	.	.	.
4c\	est,	.	4r	.	.	.	.	.
4B-\	et	.	4B-\	et	.	.	.	.
=11	=11	=11	=11	=11	=11	=11	=11	=11
4.G\	fa-	.	4.e-\	fa-	2r	.	.	.
8G\	-cta	.	8e-\	-cta	.	.	.	.
4A-\	est,	.	4f\	est	4r	.	.	.
4G\	et	.	4e-\	et	4e-\	et	.	.
=12	=12	=12	=12	=12	=12	=12	=12	=12
1F	fac-	.	4.e-\	fa-	4.a-\	fac-	2r	.
.	.	.	8d\	-cta	8a-\	-ta	.	.
.	.	.	4d\	est,	4b-\	est	4r	.
.	.	.	4B-\	et	4a-\	et	4b-\	et
!LO:TX:b:rj:t=Volti Subitto&colon;:mod=	!	!	!	!	!	!	!	!
!LO:PB:g=original	!	!	!LO:LB:g=original	!	!	!	!LO:LB:g=original	!
=13	=13	=13	=13	=13	=13	=13	=13	=13
2E-\	-ta	.	4B-\	fac-	4.g\	fac-	4.ee-\	fac-
.	.	.	4B-\	-ta	.	.	.	.
.	.	.	.	.	8g\	-ta	8ee-\	-ta
!	!	!	!	!	!LO:LB:g=original	!	!	!
4E-\	est	.	4B-\	est	4a-\	est	4ff\	est
8E-\	mi-	.	8B-\	mi-	8g\	mi-	8ee-\	mi-
8E-\	-hi	.	8B-\	-hi	8g\	-hi	8ee-\	-hi
=14	=14	=14	=14	=14	=14	=14	=14	=14
4F\	he-	.	4B-\	he-	4a-\	he-	4.ee-\	he-
4F\	-re-	.	4B-\	-re-	4a-\	-re-	.	.
.	.	.	.	.	.	.	8dd\	-re-
4F\	-di-	.	4B-\	-di-	4a-\	-di-	4dd\	-di-
4F\	-tas	.	4B-\	-tas	4a-\	-tas	4dd\	-tas
=15	=15	=15	=15	=15	=15	=15	=15	=15
4G\	me-	.	4B-\	me-	4g\	me-	4ee-\	me-
4G\	-a,	.	4B-\	-a,	4g\	-a,	4ee-\	-a,
4G\	si-	.	4e-\	si-	4b-\	si-	4b-\	si-
4G\	-cut	.	4e-\	-cut	4b-\	-cut	4b-\	-cut
!LO:LB:g=original	!	!	!	!	!	!	!LO:LB:g=original	!
=16	=16	=16	=16	=16	=16	=16	=16	=16
2A-\	le-	.	2e-\	le-	2b-\	le-	2cc\	le-
4A-\	-o	.	4e-\	-o	4a-\	-o	4cc\	-o
4A-\	in	.	4e-\	in	4a-\	in	4cc\	in
!	!	!	!LO:LB:g=original	!	!LO:LB:g=original	!	!	!
=17	=17	=17	=17	=17	=17	=17	=17	=17
1B-	sil-	.	2e-\	sil-	2g\	sil-	1b-	sil-
.	.	.	4f\	.	4a-\	.	.	.
.	.	.	4e-\	.	4g\	.	.	.
=18	=18	=18	=18	=18	=18	=18	=18	=18
2BB-/	-va.	.	2d\	-va,	2f\	-va,	2b-\	-va
2r	.	.	2r	.	2r	.	2r	.
=19	=19	=19	=19	=19	=19	=19	=19	=19
!	!	!	!LO:TX:a:t=1:mod=	!	!LO:TX:a:t=1:mod=	!	!LO:TX:a:t=1:mod=	!
2.B-\	de-	.	1r	.	1r	.	1r	.
4B-\	-dit	.	.	.	.	.	.	.
=20	=20	=20	=20	=20	=20	=20	=20	=20
2B-\	con-	.	4r	.	4r	.	4r	.
.	.	.	4d\	con-	4a-\	con-	4ff\	con-
4B-\	-tra	.	4d\	-tra	4a-\	-tra	4ff\	-tra
4B-\	me	.	4e-\	me	4a-\	me	4ee-\	me
!LO:LB:g=original	!	!	!	!	!	!	!LO:LB:g=original	!
=21	=21	=21	=21	=21	=21	=21	=21	=21
2B-\	vo-	.	4f\	vo-	4a-\	vo-	4dd\	vo-
.	.	.	4f\	-ces,	4a-\	-ces,	4dd\	-ces
2B-\	-ces	.	2r	.	2r	.	2r	.
!	!	!	!LO:LB:g=original	!	!LO:LB:g=original	!	!	!
=22	=22	=22	=22	=22	=22	=22	=22	=22
4Bn\	ad-	.	4r	.	4r	.	4r	.
4B\	-ver-	.	8d\	ad-	8a-\	ad-	8ff\	ad-
.	.	.	8d\	-ver-	8a-\	-ver-	8ff\	-ver-
4B\	-sa-	.	4d\	-sa-	4a-\	-sa-	4ff\	-sa-
8B\	-ri-	.	8e-\	-ri-	8a-\	-ri-	8ee-\	-ri-
8B\	-us,	.	8e-\	-us	8a-\	-us	8ee-\	-us
=23	=23	=23	=23	=23	=23	=23	=23	=23
2.Bn\	di-	.	2.f\	di-	2.a-\	di-	2.dd\	di-
4B\	-cens	.	4f\	-cens,	4a-\	-cens,	4dd\	-cens,
!	!	!	!	!	!	!	!LO:PB:g=original	!
=24	=24	=24	=24	=24	=24	=24	=24	=24
2c\	con-	.	2.e-\	con-	2.g\	con-	2ee-\	con-
2B-X\	-gre-	.	.	.	.	.	2dd-\	-gre-
.	.	.	4e-\	-gre-	4g\	-gre-	.	.
!LO:LB:g=original	!	!	!	!	!	!	!	!
=25	=25	=25	=25	=25	=25	=25	=25	=25
4A-\	-ga-	.	2e-\	-ga-	2a-\	-ga-	2cc\	-ga-
4G\	.	.	.	.	.	.	.	.
4F\	-mi-	.	4e-\	-mi-	4a-\	-mi-	4cc\	-mi-
4E-\	-ni	.	4e-\	-ni	4a-\	-ni	4cc\	-ni
!	!	!	!LO:LB:g=original	!	!LO:LB:g=original	!	!	!
=26	=26	=26	=26	=26	=26	=26	=26	=26
2D\	et	.	2f\	et	2a-\	et	2cc\	et
4D\	pro-	.	4f\	pro-	4a-\	pro-	4b-\	pro-
4D\	-pe-	.	4f\	-pe-	4a-\	-pe-	4b-\	-pe-
=27	=27	=27	=27	=27	=27	=27	=27	=27
2.E-\	-ra-	.	2e-\	-ra-	2g\	-ra-	2.b-\	-ra-
.	.	.	2d\	-te	2f\	-te	.	.
4E-\	-te	.	.	.	.	.	4b-\	-te
=28	=28	=28	=28	=28	=28	=28	=28	=28
4AA-/	ad	.	4c\	ad	4e-\	ad	4b-\	ad
8AA-/	de-	.	8c\	de-	8e-\	de-	8a-\	de-
8AA-/	-vo-	.	8c\	-vo-	8e-\	-vo-	8a-\	-vo-
!	!	!	!	!	!	!	!LO:LB:g=original	!
4AA-/	-ran-	.	4c\	-ran-	4e-\	-ran-	4g/	-ran-
4AA-/	-dum	.	4c\	-dum	4e-\	-dum	4f/	-dum
!LO:LB:g=original	!	!	!	!	!	!	!	!
=29	=29	=29	=29	=29	=29	=29	=29	=29
1BB-	il-	.	1B-	il-	2.e-\	il-	2g/	il-
.	.	.	.	.	.	.	2f/	.
.	.	.	.	.	4d\	.	.	.
!	!	!	!LO:PB:g=original	!	!LO:LB:g=original	!	!	!
=30	=30	=30	=30	=30	=30	=30	=30	=30
2E-\	-lum,	.	2B-\	-lum,	2e-\	-lum,	2g\	-lum,
4E-\	po-	.	4B-\	po-	4r	.	4r	.
4E-\	-su-	.	4B-\	-su-	8f\	po-	8dd\	po-
.	.	.	.	.	8f\	-su-	8dd\	-su-
=31	=31	=31	=31	=31	=31	=31	=31	=31
2G\	-e-	.	2.B-\	-e-	2e-\	-e-	2ee-\	-e-
2D\	-runt	.	.	.	2f\	-runt	2b-\	-runt
.	.	.	4B-\	-runt	.	.	.	.
=32	=32	=32	=32	=32	=32	=32	=32	=32
2E-\	me	.	2B-\	me	2e-\	me	2g\	me
4r	.	.	[2B-\	in	4r	.	4r	.
4A-\	in	.	.	.	4f\	in	4dd\	in
!	!	!	!	!	!	!	!LO:LB:g=original	!
=33	=33	=33	=33	=33	=33	=33	=33	=33
2G\	.	.	2.B-\]	.	2g\	.	2ee-\	.
2F\	de-	.	.	.	2a-\	de-	2ff\	de-
.	.	.	4B-\	de-	.	.	.	.
!LO:LB:g=original	!	!	!	!	!LO:LB:g=original	!	!	!
=34	=34	=34	=34	=34	=34	=34	=34	=34
4E-\	-ser-	.	4B-\	-ser-	4g\	-ser-	4gg\	-ser-
4E-\	-to	.	4B-\	-to	4g\	-to	4gg\	-to
4r	.	.	4e-\	so-	4r	.	4r	.
8E-\	so-	.	4e-\	-li-	8g\	so-	8b-\	so-
8E-\	-li-	.	.	.	8g\	-li-	8b-\	-li-
!	!	!	!LO:LB:g=original	!	!	!	!	!
=35	=35	=35	=35	=35	=35	=35	=35	=35
2G\	-tu-	.	2e-\	-tu-	2b-\	-tu-	2ee-\	-tu-
4G\	-di-	.	4e-\	-di-	4b-\	-di-	4ee-\	-di-
4G\	-nis,	.	4e-\	-nis	4b-\	-nis,	4dd-\	-nis,
=36	=36	=36	=36	=36	=36	=36	=36	=36
(4A-\	et	.	2e-\	et	2b-\	et	2cc\	et
4G\)	.	.	.	.	.	.	.	.
4F\	lu-	.	4f\	lu-	4a-\	lu-	4cc\	lu-
4E-\	-xit	.	4f\	-xit	4a-\	-xit	4cc\	-xit
!	!	!	!	!	!	!	!LO:LB:g=original	!
=37	=37	=37	=37	=37	=37	=37	=37	=37
2D\	su-	.	2f\	su-	2a-\	su-	2cc\	su-
2D\	-per	.	2f\	-per	2a-\	-per	2cc-X\	-per
!LO:LB:g=original	!	!	!	!	!LO:LB:g=original	!	!	!
=38	=38	=38	=38	=38	=38	=38	=38	=38
2D\	me	.	2f\	me	2a-\	me,	2b-\	me
4D\	su-	.	4f\	su-	4a-\	su-	4b-\	su-
4D\	-per	.	4f\	-per	4a-\	-per	4b-\	-per
=39	=39	=39	=39	=39	=39	=39	=39	=39
1E-	me	.	2e-\	me	2g\	me	1b-	me
.	.	.	2d\	.	2f\	.	.	.
!	!	!	!LO:LB:g=original	!	!	!	!	!
=40	=40	=40	=40	=40	=40	=40	=40	=40
2.AA-/	om-	.	2.c\	om-	2.e-\	om-	4b-\	o-
.	.	.	.	.	.	.	4a-\	.
.	.	.	.	.	.	.	4g\	.
4AA-/	-nis	.	4c\	-nis	4e-\	-nis	4f\	-mnis
=41	=41	=41	=41	=41	=41	=41	=41	=41
1BB-	ter-	.	1B-	ter-	1e-	ter-	1g	ter-
=42	=42	=42	=42	=42	=42	=42	=42	=42
1BB-	.	.	2.B-\	.	2e-\	.	1f	.
.	.	.	.	.	2d\	.	.	.
.	.	.	4A-\	.	.	.	.	.
!	!	!	!	!	!LO:LB:g=original	!	!LO:LB:g=original	!
=43	=43	=43	=43	=43	=43	=43	=43	=43
2.E-;\	-ra,	.	2.G;/	-ra,	2.e-;\	-ra,	2.e-;/	-ra,
!	!	!	!	!	!LO:SIC:v:s=4d\	!	!	!
4BB-/	qui-	.	4B-\	qui-	4e-\	qui-	4f/	qui-
!LO:LB:g=original	!	!	!	!	!	!	!	!
=44	=44	=44	=44	=44	=44	=44	=44	=44
2BB-/	.	.	2B-\	.	2d\	.	2f/	.
2BB-/	-a	.	2B-\	-a	2e-\	-a	2g/	-a
=45	=45	=45	=45	=45	=45	=45	=45	=45
2BB-/	non	.	2B-\	non	2d\	non	2f/	non
4BB-/	est	.	4B-\	est	4f\	est	4dd\	est
4BB-/	in-	.	4B-\	in-	4f\	in-	4dd\	in-
!	!	!	!LO:LB:g=original	!	!	!	!	!
=46	=46	=46	=46	=46	=46	=46	=46	=46
1F	-ven-	.	2B-\	-ven-	2f\	-ven-	2.dd\	-ven-
.	.	.	2An\	.	2e-\	.	.	.
.	.	.	.	.	.	.	4cc\	.
=47	=47	=47	=47	=47	=47	=47	=47	=47
2G\	-tus	.	2B-\	-tus,	2d\	-tus,	2b-\	-tus,
2G\	qui	.	4r	.	4r	.	4r	.
.	.	.	4d\	qui	4g\	qui	4b-\	qui
!	!	!	!	!	!LO:LB:g=original	!	!LO:LB:g=original	!
=48	=48	=48	=48	=48	=48	=48	=48	=48
2En\	.	.	2c\	.	1g	me	2cc\	.
2F\	me	.	2d\	me	.	.	2bn\	me
!LO:LB:g=original	!	!	!	!	!	!	!	!
=49	=49	=49	=49	=49	=49	=49	=49	=49
2En\	a-	.	2c\	a-	2.g\	a-	2cc\	a-
2E-X\	-gno-	.	2B-\	-gno-	.	.	2cc#X\	-gno-
.	.	.	.	.	4g\	-gno-	.	.
=50	=50	=50	=50	=50	=50	=50	=50	=50
1D	-sce-	.	1B-	-sce-	1g	-sce-	1dd	-sce-
=51	=51	=51	=51	=51	=51	=51	=51	=51
2D;\	-ret,	.	2An;\	-ret	2f#X;\	-ret,	2dd;\	-ret,
!	!	!LO:DY:b:rj:t=p.	!	!	!	!	!	!
2D\	et	p	2A\	et	2f#\	et	2dd\	et
!	!	!	!LO:LB:g=original	!	!	!	!	!
=52	=52	=52	=52	=52	=52	=52	=52	=52
2G\	fa-	.	2B-\	.	1g	fa-	2dd\	.
2C/	.	.	2c\	fa-	.	.	2ee-\	fa-
=53	=53	=53	=53	=53	=53	=53	=53	=53
2.F\	.	.	2c\	-ce-	4.an\	.	2ee-\	-ce-
.	.	.	.	.	8a\	-ce-	.	.
.	.	.	2e-\	-ret	2a\	-ret	2cc\	-ret
8F\	-ce-	.	.	.	.	.	.	.
8F\	-ret	.	.	.	.	.	.	.
!LO:LB:g=original	!	!	!	!	!LO:PB:g=original	!	!LO:LB:g=original	!
=54	=54	=54	=54	=54	=54	=54	=54	=54
1F	be-	.	2d\	be-	2.b-\	be-	2b-\	be-
.	.	.	2e-\	.	.	.	2cc\	.
.	.	.	.	.	4an\	.	.	.
=55	=55	=55	=55	=55	=55	=55	=55	=55
2BB-;/	-ne,	.	2d;\	-ne,	2b-;\	-ne,	2dd;\	-ne,
!	!	!LO:DY:t=p.	!	!	!	!	!	!
2BB-/	et	p	2d\	et	2f\	et	2b-\	et
=56	=56	=56	=56	=56	=56	=56	=56	=56
1D	fa-	.	1d	fa-	1f	fa-	2.an\	fa-
.	.	.	.	.	.	.	4a\	-ce-
=57	=57	=57	=57	=57	=57	=57	=57	=57
4.G\	.	.	2d\	-ce-	2g\l	.	2b-\	-ret
8G\	-ce-	.	.	.	.	.	.	.
2En\	-ret	.	2c\	-ret	4g\	-ce-	2b-\	be-
.	.	.	.	.	4g\	-ret	.	.
!	!	!	!LO:LB:g=original	!	!	!	!	!
=58	=58	=58	=58	=58	=58	=58	=58	=58
1F	be-	.	1c	be-	1g	be-	1b-	.
=59	=59	=59	=59	=59	=59	=59	=59	=59
2F\	-ne,	.	2c\	-ne,	2f\	-ne,	2an\	-ne,
2r	.	.	2r	.	2r	.	2r	.
!LO:LB:g=original	!	!	!	!	!	!	!LO:LB:g=original	!
=60	=60	=60	=60	=60	=60	=60	=60	=60
!	!	!	!LO:TX:a:t=1:mod=	!	!LO:TX:a:t=1:mod=	!	!LO:TX:a:t=1:mod=	!
2F\	in-	.	1r	.	1r	.	1r	.
4F\	-sur-	.	.	.	.	.	.	.
4F\	-re-	.	.	.	.	.	.	.
=61	=61	=61	=61	=61	=61	=61	=61	=61
2F\	-xe-	.	2c\	in	2.an\	in	2ee-\	in
4F\	-runt	.	4.e-\	.	.	.	4.cc\	.
4F\	in	.	.	.	4f\	.	.	.
.	.	.	8d\	.	.	.	8b-\	.
!	!	!	!	!	!LO:LB:g=original	!	!	!
=62	=62	=62	=62	=62	=62	=62	=62	=62
1F	me	.	2.c\	me,	2.f\	me,	2.an\	me,
.	.	.	4r	.	4r	.	4r	.
=63	=63	=63	=63	=63	=63	=63	=63	=63
!	!	!	!LO:TX:a:t=1:mod=	!	!LO:TX:a:t=1:mod=	!	!LO:TX:a:t=1:mod=	!
2F#X\	vi-	.	1r	.	1r	.	1r	.
2F#\	-ri	.	.	.	.	.	.	.
=64	=64	=64	=64	=64	=64	=64	=64	=64
2F#X\	vi-	.	2An\	vi-	2an\	vi-	2dd\	vi-
4F#\	-ri	.	4.d\	-ri	4.a\	-ri	4.dd\	-ri
4F#\	i-	.	.	.	.	.	.	.
.	.	.	8d\	i-	8a\	i-	8cc\	i-
!LO:LB:g=original	!	!	!LO:LB:g=original	!	!	!	!	!
=65	=65	=65	=65	=65	=65	=65	=65	=65
4G\	-ni-	.	4d\	-ni-	4g\	-ni-	4b-\	-ni-
4G\	-qui	.	4d\	-qui	4g\	-qui	4b-\	-qui
2G\	abs-	.	4r	.	4r	.	4r	.
.	.	.	4d\	abs-	4g\	abs-	4b-\	abs-
!	!	!	!	!	!	!	!LO:LB:g=original	!
=66	=66	=66	=66	=66	=66	=66	=66	=66
4En\	-que	.	4.c\	-que	4g\	-que	4.cc\	-que
4E\	mi-	.	.	.	4g\	mi-	.	.
.	.	.	8c\	mi-	.	.	8cc\	mi-
4E\	-se-	.	4c\	-se-	4g\	-se-	4cc\	-se-
4E-X\	-ri-	.	4c\	-ri-	4f\	-ri-	4an\	-ri-
=67	=67	=67	=67	=67	=67	=67	=67	=67
2D\	-cor-	.	2B-\	-cor-	2f\	-cor-	2b-\	-cor-
4BB-/	-di-	.	4B-\	-di-	4f\	-di-	4dd\	-di-
4BB-/	-a,	.	4d\	-a	4f\	-a,	4dd\	-a
!LO:PB:g=original	!	!	!	!	!LO:LB:g=original	!	!	!
=68	=68	=68	=68	=68	=68	=68	=68	=68
4.B-\	et	.	4.d\	et	4.a-X\	et	4.ff\	et
8B-\	non	.	8d\	non	8a-\	non	8ff\	non
4B-\	pe-	.	4d\	pe-	4a-\	pe-	4ff\	pe-
4B-\	-per-	.	4e-\	-per-	4a-\	-per-	4ff\	-per-
!	!	!	!LO:LB:g=original	!	!	!	!	!
=69	=69	=69	=69	=69	=69	=69	=69	=69
2B-\	-ce-	.	2f\	-ce-	2a-\	-ce-	2ee-\	-ce-
2B-\	-runt	.	2f\	-runt	2a-\	-runt	2dd\	-runt
!	!	!	!	!	!	!	!LO:LB:g=original	!
=70	=70	=70	=70	=70	=70	=70	=70	=70
2c-X\	a-	.	2f\	a-	2a-\	a-	2dd\	a-
4c-\	-ni-	.	4f\	-ni-	4a-\	-ni-	4dd\	-ni-
4c-\	-mae	.	4f\	-mae	4a-\	-mae	4dd\	-mae
=71	=71	=71	=71	=71	=71	=71	=71	=71
1B-	me-	.	1d	me-	1a-	me-	1ff	me-
=72	=72	=72	=72	=72	=72	=72	=72	=72
2.BB-;/	-ae,	.	2.f;\	-ae,	2.a-;\	-ae,	2.dd;\	-ae,
4B-\	non	.	4B-\	non	4b-\	non	4b-\	non
!LO:LB:g=original	!	!	!	!	!	!	!	!
=73	=73	=73	=73	=73	=73	=73	=73	=73
2E-\	pe-	.	2B-\	pe-	2.g\	pe-	2.ee-\	pe-
2E-\	-per-	.	2e-\	-per-	.	.	.	.
.	.	.	.	.	4g\	-per-	4b-\	-per-
!	!	!	!	!	!LO:LB:g=original	!	!	!
=74	=74	=74	=74	=74	=74	=74	=74	=74
2A-\	-ce-	.	4e-\	-ce-	4a-\	-ce-	4cc\	-ce-
.	.	.	4e-\	-runt	4a-\	-runt	4cc\	-runt
2A-\	-runt	.	2r	.	2r	.	2r	.
!	!	!	!LO:LB:g=original	!	!	!	!LO:LB:g=original	!
=75	=75	=75	=75	=75	=75	=75	=75	=75
2A-\	pe-	.	4r	.	4r	.	4r	.
.	.	.	4e-\	non	4a-\	non	4cc\	non
4A-\	.	.	4e-\	pe-	4a-\	pe-	4cc\	pe-
4A-\	-per-	.	4e-\	-per-	4a-\	-per-	4cc\	-per-
=76	=76	=76	=76	=76	=76	=76	=76	=76
2A-\	-ce-	.	2.d\	-ce-	2.f\	-ce-	2.cc\	-ce-
2A-\	-runt	.	.	.	.	.	.	.
.	.	.	4d\	-runt	4f\	-runt	4b-\	-runt
=77	=77	=77	=77	=77	=77	=77	=77	=77
2G\	a-	.	2e-\	a-	2e-\	a-	2b-\	a-
4G\	-ni-	.	4B-\	-ni-	4e-\	-ni-	4b-\	-ni-
4G\	-mae	.	4B-\	-mae	4e-\	-mae	4b-\	-mae
!LO:LB:g=original	!	!	!	!	!	!	!	!
=78	=78	=78	=78	=78	=78	=78	=78	=78
2A-\	a-	.	[1B-	a-	2f\	a-	2dd\	a-
2G\	.	.	.	.	2e-\	.	2ee-\	.
!	!	!	!	!	!	!	!LO:LB:g=original	!
=79	=79	=79	=79	=79	=79	=79	=79	=79
2D\	.	.	2B-\]	.	2f\	.	2a-\	.
4E-\	-ni-	.	4B-\	-ni-	4e-\	-ni-	4g\	-ni-
4E-\	-mae	.	4B-\	-mae	4e-\	-mae	4g\	-mae
!	!	!	!LO:LB:g=original	!	!LO:LB:g=original	!	!	!
=80	=80	=80	=80	=80	=80	=80	=80	=80
1AAn	me-	.	1c	me-	1e-	me-	1g	me-
=81	=81	=81	=81	=81	=81	=81	=81	=81
2BB-/	-ae,	.	2d\	-ae,	2d\	-ae,	2f/	-ae,
4B-\	et	.	2r	.	2r	.	2r	.
4B-\	non	.	.	.	.	.	.	.
!	!	!	!	!	!	!	!LO:TX:b:rj:t=Volti Subito&colon;:mod=	!
!	!	!	!	!	!	!	!LO:PB:g=original	!
=82	=82	=82	=82	=82	=82	=82	=82	=82
!	!	!	!	!	!LO:TX:a:t=1:mod=	!	!LO:TX:a:t=2:mod=	!
4.B-\	pe-	.	2r	.	1r	.	0r	.
8B-\	-per-	.	.	.	.	.	.	.
4c\	-ce-	.	4r	.	.	.	.	.
4B-\	-runt	.	8B-\	et	.	.	.	.
.	.	.	8B-\	non	.	.	.	.
!LO:LB:g=original	!	!	!	!	!	!	!	!
=83	=83	=83	=83	=83	=83	=83	=83	=83
4.G\	pe-	.	4.e-\	pe-	2r	.	.	.
8G\	-per-	.	8e-\	-per-	.	.	.	.
4A-\	-ce-	.	4f\	-ce-	4r	.	.	.
4G\	-runt	.	4e-\	-runt	8e-\	et	.	.
.	.	.	.	.	8e-\	non	.	.
!	!	!	!LO:LB:g=original	!	!	!	!	!
=84	=84	=84	=84	=84	=84	=84	=84	=84
1F	a-	.	4.e-\	pe-	4.a-\	pe-	2r	.
.	.	.	8d\	-per-	8a-\	-per-	.	.
.	.	.	4d\	-ce-	4b-\	-ce-	4r	.
.	.	.	4B-\	-runt	4a-\	-runt,	8b-\	et
.	.	.	.	.	.	.	8b-\	non
=85	=85	=85	=85	=85	=85	=85	=85	=85
1E-	.	.	[1B-	a-	4.g\	pe-	4.ee-\	pe-
.	.	.	.	.	8g\	-per-	8ee-\	-per-
.	.	.	.	.	4a-\	-ce-	4ff\	-ce-
.	.	.	.	.	4g\	-runt	4ee-\	-runt
!	!	!	!	!	!LO:LB:g=original	!	!	!
=86	=86	=86	=86	=86	=86	=86	=86	=86
2F\	.	.	2B-\]	.	2a-\	a-	4.ee-\	a-
.	.	.	.	.	.	.	8dd\	.
4F\	-ni-	.	4B-\	-ni-	4a-\	-ni-	4dd\	-ni-
4F\	-mae	.	4B-\	-mae,	4a-\	-mae	4dd\	-mae
!	!	!	!	!	!	!	!LO:LB:g=original	!
=87	=87	=87	=87	=87	=87	=87	=87	=87
1G	a-	.	2.B-\	a-	2g\	a-	2ee-\	a-
.	.	.	.	.	2b-\	.	2b-\	.
.	.	.	[4e-\	.	.	.	.	.
=88	=88	=88	=88	=88	=88	=88	=88	=88
2A-\	.	.	2e-\]	.	2b-\	-ni-	2.cc\	-ni-
4A-\	-ni-	.	4e-\	-ni-	2a-\	-mae	.	.
4A-\	-mae	.	4e-\	-mae	.	.	4cc\	-mae
!LO:LB:g=original	!	!	!LO:LB:g=original	!	!	!	!	!
=89	=89	=89	=89	=89	=89	=89	=89	=89
1B-	me-	.	2e-\	me-	2g\	me-	1b-	me-
.	.	.	4f\	.	4a-\	.	.	.
.	.	.	4e-\	.	4g\	.	.	.
=90	=90	=90	=90	=90	=90	=90	=90	=90
2BB-/	-ae,	.	2d\	-ae,	2f\	-ae,	2b-\	-ae,
2r	.	.	2r	.	2r	.	2r	.
=91	=91	=91	=91	=91	=91	=91	=91	=91
!	!	!	!LO:TX:a:t=1:mod=	!	!LO:TX:a:t=1:mod=	!	!LO:TX:a:t=1:mod=	!
2B-\	qui-	.	1r	.	1r	.	1r	.
4B-\	-a	.	.	.	.	.	.	.
4B-\	non	.	.	.	.	.	.	.
!	!	!	!LO:TX:b:rj:t=Volti Subito.:mod=	!	!	!	!	!
!	!	!	!LO:PB:g=original	!	!LO:LB:g=original	!	!	!
=92	=92	=92	=92	=92	=92	=92	=92	=92
2.B-\	est	.	4r	.	4r	.	4r	.
.	.	.	4d\	non	4a-\	non	4ff\	non
.	.	.	4d\	est	4a-\	est	4ff\	est
4B-\	in-	.	4e-\	in-	4a-\	in-	4ee-\	in-
!	!	!	!	!	!	!	!LO:LB:g=original	!
=93	=93	=93	=93	=93	=93	=93	=93	=93
2B-\	-ven-	.	4f\	-ven-	4a-\	-ven-	4dd\	-ven-
.	.	.	4f\	-tus,	4a-\	-tus	4dd\	-tus
2B-\	-tus	.	2r	.	2r	.	2r	.
=94	=94	=94	=94	=94	=94	=94	=94	=94
2Bn\	non	.	4r	.	4r	.	4r	.
.	.	.	4d\	non	4a-\	non	4ff\	non
4B\	est	.	4d\	est	4a-\	est	4ff\	est
4B\	in-	.	4e-\	in-	4a-\	in-	4ee-\	in
!LO:LB:g=original	!	!	!	!	!	!	!	!
=95	=95	=95	=95	=95	=95	=95	=95	=95
2.Bn\	-ven-	.	2.f\	-ven-	2.a-\	-ven-	2.dd\	ven-
4B\	-tus	.	4f\	-tus	4a-\	-tus	4dd\	-tus
!	!	!	!LO:LB:g=original	!	!LO:LB:g=original	!	!	!
=96	=96	=96	=96	=96	=96	=96	=96	=96
2c\	qui	.	2.e-\	qui	2.g\	qui	2ee-\	qui
2B-X\	me	.	.	.	.	.	2dd-X\	me
.	.	.	4e-\	me	4g\	me	.	.
!	!	!	!	!	!	!	!LO:LB:g=original	!
=97	=97	=97	=97	=97	=97	=97	=97	=97
4A-\	a-	.	2.e-\	a-	2.a-\	a-	2.cc\	a-
4G\	.	.	.	.	.	.	.	.
4F\	.	.	.	.	.	.	.	.
4E-\	-gnos-	.	4e-\	-gno-	4a-\	-gno-	4cc\	-gno-
=98	=98	=98	=98	=98	=98	=98	=98	=98
2D\	-ce-	.	2f\	-sce-	2a-\	-sce-	2cc\	-sce-
2D\	-ret	.	2f\	-ret	2a-\	-ret	2b-\	-ret
=99	=99	=99	=99	=99	=99	=99	=99	=99
1E-	et	.	2e-\	et	2g\	et	1b-	et
.	.	.	2d\	.	2f\	.	.	.
=100	=100	=100	=100	=100	=100	=100	=100	=100
2.AA-/	fa-	.	2c\	fa-	2e-\	fa-	4b-\	fa-
.	.	.	.	.	.	.	4a-\	.
.	.	.	4c\	-ce-	4e-\	-ce-	4g\	-ce-
8AA-/	-ce-	.	4c\	-ret	4e-\	-ret	4f\	-ret
8AA-/	-ret	.	.	.	.	.	.	.
!LO:LB:g=original	!	!	!LO:LB:g=original	!	!LO:LB:g=original	!	!	!
=101	=101	=101	=101	=101	=101	=101	=101	=101
1BB-	be-	.	1B-	be-	2.e-\	be-	2g/	be-
.	.	.	.	.	.	.	2f/	.
.	.	.	.	.	4d\	.	.	.
!	!	!	!	!	!	!	!LO:LB:g=original	!
=102	=102	=102	=102	=102	=102	=102	=102	=102
2E-\	-ne,	.	2B-\	-ne,	2e-\	-ne,	2g\	-ne,
4r	.	.	2B-\	qui-	4r	.	4r	.
4A-\	qui-	.	.	.	4f\	qui-	4dd\	qui-
=103	=103	=103	=103	=103	=103	=103	=103	=103
2G\	.	.	1B-	-a	2e-\	.	2ee-\	.
2D\	-a	.	.	.	2f\	-a	2b-\	-a
=104	=104	=104	=104	=104	=104	=104	=104	=104
2E-\	non	.	4B-\	non	2e-\	non	2g\	non
.	.	.	4B-\	est	.	.	.	.
4A-\	est	.	2B-\	non	4r	.	4r	.
4A-\	in-	.	.	.	4f\	non	4dd\	non
=105	=105	=105	=105	=105	=105	=105	=105	=105
2G\	-ven-	.	2.B-\	est	2g\	est	2ee-\	est
2F\	.	.	.	.	2a-\	in	2ff\	in-
.	.	.	4B-\	in-	.	.	.	.
!LO:LB:g=original	!	!	!	!	!LO:LB:g=original	!	!	!
=106	=106	=106	=106	=106	=106	=106	=106	=106
4E-\	.	.	4B-\	-ven-	4g\	ven-	4gg\	-ven-
4E-\	-tus,	.	4B-\	-tus	4g\	-tus	4gg\	-tus,
4r	.	.	2e-\	qui	4r	.	4r	.
4E-\	qui	.	.	.	4g\	qui	4b-\	qui
!	!	!	!LO:LB:g=original	!	!	!	!LO:LB:g=original	!
=107	=107	=107	=107	=107	=107	=107	=107	=107
1G	me	.	1e-	me	2.b-\	.	2.ee-\	.
.	.	.	.	.	4b-\	me	4dd-X\	me
=108	=108	=108	=108	=108	=108	=108	=108	=108
4A-\	a-	.	2e-\	a-	2b-\	a-	2.cc\	a-
4G\	.	.	.	.	.	.	.	.
4F\	.	.	2f\	-gno-	2a-\	-gno-	.	.
4E-\	-gnos-	.	.	.	.	.	4cc\	-gno-
=109	=109	=109	=109	=109	=109	=109	=109	=109
2D\	-ce-	.	2f\	-sce-	2a-\	-sce-	2cc\	-sce-
2D\	-ret	.	2f\	-ret	2a-\	-ret	2cc-X\	-ret
=110	=110	=110	=110	=110	=110	=110	=110	=110
2D\	et	.	2f\	et	2a-\	et	2b-\	et
2D\	fa-	.	2f\	fa-	2a-\	fa-	2b-\	fa-
!LO:LB:g=original	!	!	!	!	!LO:LB:g=original	!	!	!
=111	=111	=111	=111	=111	=111	=111	=111	=111
2.E-\	.	.	2e-\	-ce-	2g\	.	2b-\	.
.	.	.	2d\	-ret	4f\	-ce-	4b-\	-ce-
8E-\	-ce-	.	.	.	4f\	-ret	4b-\	-ret
8E-\	-ret	.	.	.	.	.	.	.
!	!	!	!	!	!	!	!LO:LB:g=original	!
=112	=112	=112	=112	=112	=112	=112	=112	=112
1AA-	be-	.	2.c\	be-	2.e-\	be-	4b-\	be-
.	.	.	.	.	.	.	4a-\	.
.	.	.	.	.	.	.	4g\	.
.	.	.	4c\	-ne	4e-\	-ne	4f\	-ne
!	!	!	!LO:LB:g=original	!	!	!	!	!
=113	=113	=113	=113	=113	=113	=113	=113	=113
1BB-	.	.	1B-	be-	1e-	be-	1g	be-
=114	=114	=114	=114	=114	=114	=114	=114	=114
1BB-	.	.	2.B-\	.	2e-\	.	1f	.
.	.	.	.	.	2d\	.	.	.
.	.	.	4A-\	.	.	.	.	.
=115	=115	=115	=115	=115	=115	=115	=115	=115
2.E-\	-ne.	.	2.G;/	-ne.	2.e-;\	-ne.	2.e-;/	-ne.
4r	.	.	4r	.	4r	.	4r	.
==	==	==	==	==	==	==	==	==
*-	*-	*-	*-	*-	*-	*-	*-	*-
!!!system-decoration: [(s1,s2,s3,s4)]
!!!RDF**kern: > = above
!!!RDF**kern: < = below
!!!RDF**kern: i = editorial accidental
!!!ENC: Anastazja Marusiak
!!!EED: Katarzyna Serwa
!!!END: 2023-11-18
!!!EEV: 2024-06-04
